!!!OTL: EIN SULTAN HATT EIN TOECHTERLEIN
!!!ARE: Europa, Mitteleuropa, Deutschland, Magdeburg
!!!SCT: E2128
!!!YEM: Copyright 1995, estate of Helmut Schaffrath.
**kern
*ICvox
*Ivox
*M3/4
*k[f#]
*G:
{8g
=1
8g
8b
4dd
8cc
8a
=2
8g
8b
4.b}
{8a
=3
8g
8b
4dd
8cc
8b
=4
4b
4a}
{4dd
=5
8b
8cc
4.dd
16b
16g
=6
8cc
8cc
4.gg}
{8ee
=7
8gg
8b
4b
8cc
8a
=8
4a
4g
8r}
{8dd
=9
8b
8cc
4.dd
16b
16g
=10
8cc
8cc
4.gg}
{8ee
=11
8gg
8b
4b
8cc
8a
=12
4a
4g
8r}
==
!!!AGN: geistlich, Heiligen - Lied, Legende
!!!ONB: ESAC (Essen Associative Code) Database: ERK3
!!!AMT: simple triple
!!!AIN: vox
!!!EED: Helmut Schaffrath
!!!EEV: 1.0
*-
